assets/icons/bundle.svg

<svg width="20" height="20" viewBox="0 0 20 20" fill="none" xmlns="http://www.w3.org/2000/svg">
<path d="M17.9868 9.41271V10.0008C17.988 10.1559 17.9441 10.3081 17.8603 10.4386C17.7766 10.5692 17.6567 10.6726 17.5152 10.7362L10.6568 13.8536C10.4497 13.9475 10.2248 13.996 9.99739 13.996C9.76994 13.996 9.54512 13.9475 9.33793 13.8536L2.46362 10.7282C2.32487 10.664 2.20745 10.5614 2.12527 10.4324C2.0431 10.3035 1.99962 10.1537 2 10.0008V9.41271M17.9868 13.4091V13.9972C17.988 14.1523 17.9441 14.3044 17.8603 14.435C17.7766 14.5656 17.6567 14.669 17.5152 14.7326L10.6568 17.85C10.4497 17.9438 10.2248 17.9924 9.99739 17.9924C9.76994 17.9924 9.54512 17.9438 9.33793 17.85L2.46362 14.7246C2.32487 14.6604 2.20745 14.5577 2.12527 14.4288C2.0431 14.2999 1.99962 14.1501 2 13.9972V13.4091M10.6568 2.151C10.4486 2.056 10.2223 2.00684 9.99339 2.00684C9.76446 2.00684 9.53821 2.056 9.32994 2.151L2.4796 5.26842C2.33776 5.33097 2.21716 5.43341 2.1325 5.56326C2.04784 5.69312 2.00276 5.8448 2.00276 5.99982C2.00276 6.15484 2.04784 6.30651 2.1325 6.43637C2.21716 6.56623 2.33776 6.66867 2.4796 6.73121L9.33793 9.85663C9.54621 9.95163 9.77246 10.0008 10.0014 10.0008C10.2303 10.0008 10.4566 9.95163 10.6648 9.85663L17.5232 6.73921C17.665 6.67666 17.7856 6.57422 17.8703 6.44437C17.9549 6.31451 18 6.16283 18 6.00781C18 5.85279 17.9549 5.70112 17.8703 5.57126C17.7856 5.4414 17.665 5.33896 17.5232 5.27642L10.6568 2.151Z" stroke="currentColor" stroke-width="1.5" stroke-linecap="round" stroke-linejoin="round"/>
</svg>

<svg xmlns="http://www.w3.org/2000/svg" width="20" height="20" fill="none" viewBox="0 0 20 20"><path stroke="currentColor" stroke-linecap="round" stroke-linejoin="round" stroke-width="1.5" d="M17.987 9.413V10a.8.8 0 0 1-.472.735l-6.858 3.118a1.6 1.6 0 0 1-1.32 0l-6.873-3.126A.8.8 0 0 1 2 10.001v-.588m15.987 3.996v.588a.8.8 0 0 1-.472.736l-6.858 3.117a1.6 1.6 0 0 1-1.32 0l-6.873-3.125A.8.8 0 0 1 2 13.997v-.588m8.657-11.258a1.6 1.6 0 0 0-1.327 0L2.48 5.268a.8.8 0 0 0 0 1.463l6.858 3.126a1.6 1.6 0 0 0 1.327 0l6.858-3.118a.8.8 0 0 0 0-1.463z"/></svg>
